dist/release/static/symbols/device/dozer.svg

<?xml version="1.0" encoding="UTF-8" standalone="no"?>
<!-- Created with Inkscape (http://www.inkscape.org/) -->

<svg
   xmlns:dc="http://purl.org/dc/elements/1.1/"
   xmlns:cc="http://creativecommons.org/ns#"
   xmlns:rdf="http://www.w3.org/1999/02/22-rdf-syntax-ns#"
   xmlns:svg="http://www.w3.org/2000/svg"
   xmlns="http://www.w3.org/2000/svg"
   xmlns:sodipodi="http://sodipodi.sourceforge.net/DTD/sodipodi-0.dtd"
   xmlns:inkscape="http://www.inkscape.org/namespaces/inkscape"
   width="24"
   height="24"
   viewBox="0 0 24 24"
   id="svg2"
   version="1.1"
   inkscape:version="0.91 r13725"
   sodipodi:docname="dozer.svg">
  <defs
     id="defs4">
    <inkscape:perspective
       id="perspective10"
       inkscape:persp3d-origin="372.04724 : 350.78739 : 1"
       inkscape:vp_z="744.09448 : 526.18109 : 1"
       inkscape:vp_y="0 : 1000 : 0"
       inkscape:vp_x="0 : 526.18109 : 1"
       sodipodi:type="inkscape:persp3d" />
    <inkscape:perspective
       sodipodi:type="inkscape:persp3d"
       inkscape:vp_x="0 : 526.18109 : 1"
       inkscape:vp_y="0 : 1000 : 0"
       inkscape:vp_z="744.09448 : 526.18109 : 1"
       inkscape:persp3d-origin="372.04724 : 350.78739 : 1"
       id="perspective2390" />
    <inkscape:perspective
       sodipodi:type="inkscape:persp3d"
       inkscape:vp_x="0 : 526.18109 : 1"
       inkscape:vp_y="0 : 1000 : 0"
       inkscape:vp_z="744.09448 : 526.18109 : 1"
       inkscape:persp3d-origin="372.04724 : 350.78739 : 1"
       id="perspective2403" />
    <inkscape:perspective
       id="perspective2437"
       inkscape:persp3d-origin="32 : 21.333333 : 1"
       inkscape:vp_z="64 : 32 : 1"
       inkscape:vp_y="0 : 1000 : 0"
       inkscape:vp_x="0 : 32 : 1"
       sodipodi:type="inkscape:persp3d" />
    <inkscape:perspective
       id="perspective4043"
       inkscape:persp3d-origin="32 : 21.333333 : 1"
       inkscape:vp_z="64 : 32 : 1"
       inkscape:vp_y="0 : 1000 : 0"
       inkscape:vp_x="0 : 32 : 1"
       sodipodi:type="inkscape:persp3d" />
  </defs>
  <sodipodi:namedview
     id="base"
     pagecolor="#ffffff"
     bordercolor="#666666"
     borderopacity="1.0"
     inkscape:pageopacity="0.0"
     inkscape:pageshadow="2"
     inkscape:zoom="4"
     inkscape:cx="-17.314997"
     inkscape:cy="-17.63407"
     inkscape:document-units="px"
     inkscape:current-layer="layer3"
     showgrid="true"
     units="px"
     inkscape:window-width="1858"
     inkscape:window-height="1153"
     inkscape:window-x="62"
     inkscape:window-y="25"
     inkscape:window-maximized="1">
    <inkscape:grid
       type="xygrid"
       id="grid4136" />
  </sodipodi:namedview>
  <metadata
     id="metadata7">
    <rdf:RDF>
      <cc:Work
         rdf:about="">
        <dc:format>image/svg+xml</dc:format>
        <dc:type
           rdf:resource="http://purl.org/dc/dcmitype/StillImage" />
        <dc:title></dc:title>
      </cc:Work>
    </rdf:RDF>
  </metadata>
  <g
     inkscape:label="Layer 1"
     inkscape:groupmode="layer"
     id="layer1"
     transform="translate(0,-1028.3622)" />
  <g
     inkscape:groupmode="layer"
     id="layer3"
     inkscape:label="Layer 2">
    <path
       style="fill:#7c3100;fill-opacity:1;stroke:none;stroke-width:1;stroke-miterlimit:4;stroke-dasharray:none;stroke-opacity:1"
       d="M 2,6 C 1.4476501,5.9998428 0.99984279,6.4476501 1,7 l 0,4 c 8.9e-6,0.265207 0.1053968,0.519543 0.2929688,0.707031 L 2.015625,12.429688 C 0.92090136,12.889889 0,13.799601 0,15 c 0,1.570595 1.429405,3 3,3 l 12,0 c 0.939636,0 1.704974,-0.574991 2.267578,-1.322266 0.142671,0.154979 0.33065,0.260931 0.53711,0.302735 l 5,1 c 0.969937,0.193563 1.601924,-0.988335 0.902343,-1.6875 L 23,15.585938 l 0,-2.171876 0.707031,-0.707031 c 0.699581,-0.699165 0.06759,-1.881063 -0.902343,-1.6875 L 19,11.78125 19,9 19,8 C 19.000157,7.4476501 18.55235,6.9998428 18,7 L 16.414062,7 15.707031,6.2929688 C 15.519543,6.1053968 15.265207,6.0000089 15,6 L 14,6 C 13.44765,5.9998428 12.999843,6.4476501 13,7 L 10,7 C 9.4476501,6.9998428 8.9998428,7.4476501 9,8 L 9,10 8,10 8,9 C 7.9999912,8.7347926 7.8946033,8.4804566 7.7070312,8.2929688 L 7,7.5859375 7,7 C 7.0001572,6.4476501 6.5523499,5.9998428 6,6 Z"
       id="path4547"
       inkscape:connector-curvature="0"
       sodipodi:nodetypes="cccccsssccccccccccccccccccccccccccc" />
    <path
       style="fill:#ff6600;fill-opacity:1;stroke:none;stroke-width:1;stroke-miterlimit:4;stroke-dasharray:none;stroke-opacity:1"
       d="M 2 7 L 2 11 L 3 12 L 7 12 L 12 12 L 15 12 A 3 3 0 0 1 17.826172 14 L 18 14 L 18 16 L 23 17 L 22 16 L 22 13 L 23 12 L 18 13 L 18 12 L 18 9 L 18 8 L 16 8 L 15 7 L 14 7 L 14 8 L 10 8 L 10 11 L 7 11 L 7 9 L 6 8 L 6 7 L 2 7 z M 3 13 A 2 2 0 0 0 1 15 A 2 2 0 0 0 3 17 L 15 17 A 2 2 0 0 0 17 15 A 2 2 0 0 0 15 13 L 3 13 z "
       id="path4462" />
  </g>
</svg>

<svg xmlns="http://www.w3.org/2000/svg" width="24" height="24" viewBox="0 0 24 24"><path d="M2 6a1 1 0 0 0-1 1v4a1 1 0 0 0 .293.707l.723.723C.92 12.89 0 13.8 0 15c0 1.57 1.43 3 3 3h12c.94 0 1.705-.575 2.268-1.322a1 1 0 0 0 .537.302l5 1c.97.194 1.602-.988.902-1.687L23 15.586v-2.172l.707-.707c.7-.7.068-1.881-.902-1.687L19 11.78V8a1 1 0 0 0-1-1h-1.586l-.707-.707A1 1 0 0 0 15 6h-1a1 1 0 0 0-1 1h-3a1 1 0 0 0-1 1v2H8V9a1 1 0 0 0-.293-.707L7 7.586V7a1 1 0 0 0-1-1z" fill="#7c3100"/><path d="M2 7v4l1 1h12a3 3 0 0 1 2.826 2H18v2l5 1-1-1v-3l1-1-5 1V8h-2l-1-1h-1v1h-4v3H7V9L6 8V7H2zm1 6a2 2 0 0 0-2 2 2 2 0 0 0 2 2h12a2 2 0 0 0 2-2 2 2 0 0 0-2-2H3z" fill="#f60"/></svg>
